Sources/FrostedUI/Resources/Icons.xcassets/mailOut24.imageset/mail-out-24.svg

<svg width="24" height="24" viewBox="0 0 24 24" fill="none" xmlns="http://www.w3.org/2000/svg" data-fui-icon="true">
  <path
    d="M17.96 3.5C19.915 3.5 21.5 5.08495 21.5 7.04004V10.5C21.5 10.9142 21.1642 11.25 20.75 11.25C20.3358 11.25 20 10.9142 20 10.5V9.16895L13.3594 13.6953C12.5902 14.2196 11.6808 14.5 10.75 14.5C9.81919 14.5 8.90976 14.2196 8.14062 13.6953L1.5 9.16895V16.96C1.5 18.0866 2.41338 19 3.54004 19H16.75C17.1642 19 17.5 19.3358 17.5 19.75C17.5 20.1642 17.1642 20.5 16.75 20.5H3.54004C1.58495 20.5 0 18.915 0 16.96V7.04004C0 5.08495 1.58495 3.5 3.54004 3.5H17.96ZM19.3301 12.5479C19.6145 12.2467 20.0885 12.2332 20.3896 12.5176L23.7646 15.7051C23.7672 15.7074 23.769 15.7105 23.7715 15.7129C23.7784 15.7196 23.7853 15.7264 23.792 15.7334C23.8184 15.7611 23.8426 15.7903 23.8643 15.8213C23.8704 15.83 23.8751 15.8396 23.8809 15.8486C23.9012 15.8805 23.9203 15.9129 23.9355 15.9473C23.9395 15.9562 23.9427 15.9655 23.9463 15.9746C23.9808 16.0615 24 16.1545 24 16.25C24 16.3451 23.9806 16.4378 23.9463 16.5244C23.9434 16.5318 23.9416 16.5396 23.9385 16.5469C23.9228 16.5832 23.9022 16.6169 23.8809 16.6504C23.8753 16.6592 23.8702 16.6682 23.8643 16.6768C23.8425 16.708 23.8186 16.7377 23.792 16.7656C23.7853 16.7726 23.7784 16.7794 23.7715 16.7861C23.7689 16.7887 23.7673 16.7924 23.7646 16.7949L20.3896 19.9824C20.0885 20.2668 19.6145 20.2533 19.3301 19.9521C19.0457 19.651 19.0592 19.177 19.3604 18.8926L21.3643 17H14.625C14.2108 17 13.875 16.6642 13.875 16.25C13.875 15.8358 14.2108 15.5 14.625 15.5H21.3643L19.3604 13.6074C19.0592 13.323 19.0457 12.849 19.3301 12.5479ZM3.54004 5C2.41338 5 1.5 5.91338 1.5 7.04004V7.35254L8.98535 12.4561C9.50545 12.8106 10.1206 13 10.75 13C11.3794 13 11.9946 12.8106 12.5146 12.4561L20 7.35254V7.04004C20 5.91338 19.0866 5 17.96 5H3.54004Z"
    fill="currentColor"
  />
</svg>

<svg xmlns="http://www.w3.org/2000/svg" width="24" height="24" fill="none" data-fui-icon="true" viewBox="0 0 24 24"><path fill="currentColor" d="M17.96 3.5a3.54 3.54 0 0 1 3.54 3.54v3.46a.75.75 0 0 1-1.5 0V9.169l-6.64 4.526a4.63 4.63 0 0 1-5.22 0L1.5 9.17v7.791A2.04 2.04 0 0 0 3.54 19h13.21a.75.75 0 0 1 0 1.5H3.54A3.54 3.54 0 0 1 0 16.96V7.04A3.54 3.54 0 0 1 3.54 3.5zm1.37 9.048a.75.75 0 0 1 1.06-.03l3.375 3.187.006.008a1 1 0 0 1 .093.108l.017.028q.031.047.055.098l.01.028a.75.75 0 0 1 0 .55q-.003.011-.008.022a1 1 0 0 1-.057.103q-.008.014-.017.027a1 1 0 0 1-.093.11l-.006.008-3.375 3.187a.75.75 0 1 1-1.03-1.09L21.364 17h-6.739a.75.75 0 0 1 0-1.5h6.74l-2.005-1.893a.75.75 0 0 1-.03-1.06M3.54 5A2.04 2.04 0 0 0 1.5 7.04v.313l7.485 5.103a3.13 3.13 0 0 0 3.53 0L20 7.353V7.04A2.04 2.04 0 0 0 17.96 5z"/></svg>
